X:11
T:Cabot Landing
R:hornpipe
C:Paul S. Cranford
O:Cape Breton Island
S:http://www.cranfordpub.com
D:currently unrecorded
B:currently unpublished in book form
Z:psc, (re-formatted,updated 9/17/04)
N:
H:                                                        copyrights Cranford Publications, SOCAN
L:1/8
Q:333
M:C|
K:A
AF|EA,CE AcBA|BEGB d2 cB|cAce aece|dcBA B2 AF|
EA,CE AcBA|BEGB d2 cB|cAEC B,dcB|A2 c2 A2:|
|:(3(efg)|aece fdBd|cAEC B,dcB|cAce aece|dcBA B2 (3(efg)|
acea fdBf|eAce dBGd|cAEC B,dcB|A2 c2 A2:|
